X: 40
T:Temperley Hornpipe
% Nottingham Music Database
S:Mick Peat
M:2/2
K:D
A3/2d/2|"D"f2A2 a3/2f/2e3/2d/2|"A"e2A2 a3/2e/2d3/2c/2|"Bm"d2B2 b3/2f/2e3/2d/2|\
"F#"d3/2c/2c3/2^B/2 c3/2F/2^A3/2c/2|
"D"f2A2 a3/2f/2e3/2d/2|"A"e2A2 a3/2e/2d3/2c/2|\
"G"B3/2b/2g3/2e/2 "A"e3/2d/2d3/2c/2|"D"d2f2 d2A3/2d/2:|
"A"e2A2 f2A2|g3/2f/2g3/2e/2 c3/2A/2B3/2c/2|\
K:F
"Dm"d2A2 f2d2|a2f2 d'3/2a/2f3/2d/2|
K:F
"Gm"b3/2^a/2b3/2g/2 d3/2B/2G3/2D/2|"Dm"a3/2^g/2a3/2f/2 d3/2A/2F3/2D/2|\
K:D
"A"g3/2f/2g3/2e/2 c3/2A/2B3/2c/2|"D"d2f2 d2||
A3/2d/2:|<end>
<start>
